icons/1_Primary/Neowin.svg

<svg width="1024" height="1024" viewBox="0 0 1024 1024" fill="none" xmlns="http://www.w3.org/2000/svg">
<g clip-path="url(#clip0_2_2895)">
<path d="M512 1024C794.77 1024 1024 794.77 1024 512C1024 229.23 794.77 0 512 0C229.23 0 0 229.23 0 512C0 794.77 229.23 1024 512 1024Z" fill="#54688C"/>
<path d="M768 512C768.078 569.523 748.694 625.381 713 670.49C712.94 670.49 728.43 590.73 728.45 511.24C728.45 432.24 712.98 353.4 712.97 353.33C748.719 398.48 768.117 454.411 768 512ZM357.3 308C407.141 270.216 469.087 251.98 531.45 256.733C593.814 261.486 652.281 288.899 695.82 333.8C695.82 333.8 734.52 755 357.3 308ZM654.92 724.4C603.651 758.87 541.648 773.645 480.343 766C419.038 758.355 362.564 728.806 321.33 682.8C321.33 682.8 291.61 243.43 654.92 724.4ZM256 512C256.005 460.488 271.248 410.129 299.81 367.26C299.81 367.26 286.94 439.26 286.94 511.26C286.94 583.26 299.82 655.26 299.83 655.26C272.33 614.59 256 562.4 256 512Z" fill="white"/>
</g>
<defs>
<clipPath id="clip0_2_2895">
<rect width="1024" height="1024" fill="white"/>
</clipPath>
</defs>
</svg>

<svg xmlns="http://www.w3.org/2000/svg" viewBox="0 0 1024 1024">
   <circle cx="512" cy="512" r="512" style="fill:#1e5078"/>
   <path d="M768 512a254.86 254.86 0 0 1-55 158.49c-.06 0 15.43-79.76 15.45-159.25 0-79-15.47-157.84-15.48-157.91A254.77 254.77 0 0 1 768 512zM357.3 308a256.06 256.06 0 0 1 338.52 25.8S734.52 755 357.3 308zm297.62 416.4a256.09 256.09 0 0 1-333.59-41.6s-29.72-439.37 333.59 41.6zM256 512a261.09 261.09 0 0 1 43.81-144.74s-12.87 72-12.87 144 12.88 144 12.89 144C272.33 614.59 256 562.4 256 512z" style="fill:#fff"/>
</svg>
